Backpack-Common/Icons/Assets/Media.xcassets/award-lg.imageset/award-lg.svg

<svg viewBox="0 0 24 24" xmlns="http://www.w3.org/2000/svg"><path d="M15.4314 9.57603L15.3967 9.60857C17.3988 10.7809 18.75 12.9492 18.75 15.4322C18.75 19.1543 15.7222 22.1821 12 22.1821C8.27783 22.1821 5.25 19.1543 5.25 15.4322C5.25 12.9492 6.6012 10.781 8.60315 9.60866C8.33948 9.36507 8.07483 9.11385 7.81006 8.84865C5.37012 6.41847 3.82715 4.02101 3.125 2.80812L4.42285 2.05617C5.08838 3.2051 6.55078 5.47707 8.86963 7.78713C9.16552 8.08254 9.45996 8.36867 9.75488 8.63527C9.82811 8.70216 9.90181 8.76466 9.97552 8.82716C10.0245 8.86873 10.0736 8.91031 10.1225 8.9532C10.7193 8.77998 11.348 8.68214 12 8.68214C12.3005 8.68214 12.5942 8.70875 12.8844 8.74696C12.4164 8.39442 11.9514 8.03096 11.5029 7.64064C11.0771 7.26418 10.6465 6.86281 10.2153 6.42189C9.08641 5.28419 8.07567 4.08595 7.21434 2.86427L8.4409 2.00001C9.24217 3.13722 10.2251 4.30226 11.2837 5.36915C11.5205 5.61103 11.755 5.83619 11.9879 6.05329C12.0433 6.00237 12.0986 5.95206 12.1539 5.9018C12.3403 5.73235 12.5261 5.56341 12.7124 5.37305C13.7749 4.30225 14.7578 3.13721 15.5591 2L16.7856 2.86426C15.9243 4.08594 14.9135 5.28418 13.7807 6.42578C13.628 6.58197 13.4747 6.7217 13.3208 6.86202C13.2555 6.92151 13.1901 6.98111 13.1246 7.04211C13.709 7.5191 14.2412 7.9162 14.6776 8.22058C14.7205 8.17973 14.7632 8.13948 14.8058 8.0993C14.9131 7.99811 15.02 7.8973 15.1294 7.78808C17.4492 5.47705 18.9116 3.20508 19.5771 2.05615L20.875 2.8081C20.1728 4.02099 18.6299 6.41845 16.1889 8.8496C15.9347 9.10428 15.6812 9.34189 15.4314 9.57603ZM13.9471 16.096L14.8064 15.7781C15.0645 15.6826 15.0645 15.3175 14.8064 15.2219L13.9471 14.904C13.3211 14.6723 12.8276 14.1789 12.596 13.5529L12.278 12.6936C12.1825 12.4355 11.8174 12.4355 11.7219 12.6936L11.4039 13.5529C11.1723 14.1789 10.6788 14.6723 10.0529 14.904L9.19359 15.2219C8.93547 15.3175 8.93547 15.6826 9.19359 15.7781L10.0529 16.096C10.6788 16.3276 11.1723 16.8212 11.4039 17.4471L11.7219 18.3064C11.8174 18.5645 12.1825 18.5645 12.278 18.3064L12.596 17.4471C12.8276 16.8212 13.3211 16.3277 13.9471 16.096Z" fill="#161616"/></svg>

<svg xmlns="http://www.w3.org/2000/svg" viewBox="0 0 24 24"><path d="m15.431 9.576-.034.033a6.75 6.75 0 0 1 3.353 5.823 6.757 6.757 0 0 1-6.75 6.75 6.757 6.757 0 0 1-6.75-6.75A6.75 6.75 0 0 1 8.603 9.61a27 27 0 0 1-.793-.76c-2.44-2.43-3.983-4.828-4.685-6.04l1.298-.753c.665 1.15 2.128 3.421 4.447 5.731.296.296.59.582.885.848q.11.1.22.192l.148.126A6.7 6.7 0 0 1 12 8.683c.3 0 .594.026.884.064a25 25 0 0 1-1.381-1.106 24 24 0 0 1-1.288-1.22 28 28 0 0 1-3-3.557L8.44 2a26.8 26.8 0 0 0 3.547 4.053l.166-.151c.186-.17.372-.339.558-.529A27 27 0 0 0 15.56 2l1.227.864a28 28 0 0 1-3.005 3.562c-.153.156-.306.296-.46.436l-.196.18c.584.477 1.116.874 1.553 1.179l.128-.122q.16-.149.323-.31c2.32-2.312 3.783-4.584 4.448-5.733l1.298.752c-.702 1.213-2.245 3.61-4.686 6.042-.254.254-.508.492-.758.726m-1.484 6.52.86-.318a.297.297 0 0 0 0-.556l-.86-.318a2.29 2.29 0 0 1-1.351-1.351l-.318-.86a.296.296 0 0 0-.556 0l-.318.86a2.29 2.29 0 0 1-1.351 1.351l-.86.318a.297.297 0 0 0 0 .556l.86.318c.626.232 1.12.725 1.35 1.351l.319.86c.095.258.46.258.556 0l.318-.86a2.29 2.29 0 0 1 1.351-1.351"/></svg>
